X: 8112
T: Continental, The
R: polka
M: 2/4
K: Amajor
e>f ed|cd ec|Bc dB|cd ec|e>f ed|cd ec|Bc de|A2 A2:|
B>B Ba|g(e e)d|ce ae|de ae|B>B Ba|g(e e)a|ge dB|A2 A2:|

